Resources/Public/Icons/solid/house-medical-flag.svg

<svg xmlns="http://www.w3.org/2000/svg" viewBox="0 0 640 512"><!--! Font Awesome Free 6.6.0 by @fontawesome - https://fontawesome.com License - https://fontawesome.com/license/free (Icons: CC BY 4.0, Fonts: SIL OFL 1.1, Code: MIT License) Copyright 2024 Fonticons, Inc. --><path d="M480 0c17.7 0 32 14.3 32 32l112 0c8.8 0 16 7.2 16 16l0 128c0 8.8-7.2 16-16 16l-112 0 0 320-64 0 0-320 0-160c0-17.7 14.3-32 32-32zM276.8 39.7L416 159l0 353 1 0-.2 0L96 512c-17.7 0-32-14.3-32-32l0-192-32 0c-13.4 0-25.4-8.3-30-20.9s-1-26.7 9.2-35.4l224-192c12-10.3 29.7-10.3 41.7 0zM224 208l0 48-48 0c-8.8 0-16 7.2-16 16l0 32c0 8.8 7.2 16 16 16l48 0 0 48c0 8.8 7.2 16 16 16l32 0c8.8 0 16-7.2 16-16l0-48 48 0c8.8 0 16-7.2 16-16l0-32c0-8.8-7.2-16-16-16l-48 0 0-48c0-8.8-7.2-16-16-16l-32 0c-8.8 0-16 7.2-16 16z"/></svg>

<svg xmlns="http://www.w3.org/2000/svg" viewBox="0 0 640 512"><!--! Font Awesome Free 6.5.1 by @fontawesome - https://fontawesome.com License - https://fontawesome.com/license/free (Icons: CC BY 4.0, Fonts: SIL OFL 1.1, Code: MIT License) Copyright 2023 Fonticons, Inc. --><path d="M480 0c17.7 0 32 14.3 32 32H624c8.8 0 16 7.2 16 16V176c0 8.8-7.2 16-16 16H512V512H448V192 32c0-17.7 14.3-32 32-32zM276.8 39.7L416 159V512h1l-.2 0H96c-17.7 0-32-14.3-32-32V288H32c-13.4 0-25.4-8.3-30-20.9s-1-26.7 9.2-35.4l224-192c12-10.3 29.7-10.3 41.7 0zM224 208v48H176c-8.8 0-16 7.2-16 16v32c0 8.8 7.2 16 16 16h48v48c0 8.8 7.2 16 16 16h32c8.8 0 16-7.2 16-16V320h48c8.8 0 16-7.2 16-16V272c0-8.8-7.2-16-16-16H288V208c0-8.8-7.2-16-16-16H240c-8.8 0-16 7.2-16 16z"/></svg>
